azure-docs/i_azure-cognitive-services-color.svg

<svg xmlns="http://www.w3.org/2000/svg" viewBox="0 0 64 64"><defs><style>.cls-2{fill:#fff}</style></defs><g id="Layer_5" data-name="Layer 5"><path d="M63.07 40a10.29 10.29 0 0 1-3.49 4.33 8.64 8.64 0 0 1-5 1.62 8.47 8.47 0 0 1-3.21-.64 10.63 10.63 0 0 1-3.72 3A10.92 10.92 0 0 1 43 49.45h-.14a8.76 8.76 0 0 1-1.86-.19 8.46 8.46 0 0 1-1.84-.61 12 12 0 0 1-7.47 2.22c-2.59 0-5.78-.64-7.86-2.36a8.13 8.13 0 0 1-2.57.4H21a8.68 8.68 0 0 1-2-.28 11.81 11.81 0 0 1-5.13-2.78 9.17 9.17 0 0 1-3.79.8 9.68 9.68 0 0 1-8.41-4.93 11.39 11.39 0 0 1-.79-10A13.29 13.29 0 0 1 9 24.28C10.25 19.71 14.78 16 19.34 16H20a6.53 6.53 0 0 1 1.09.17 9.81 9.81 0 0 1 .91-.77 11.88 11.88 0 0 1 6.84-2.32 8.17 8.17 0 0 1 3.81.9 11.48 11.48 0 0 1 4.52-1 12.5 12.5 0 0 1 7.38 2.66h.58c6 0 10 4.82 11.41 9.63a12.91 12.91 0 0 1 6.67 6.5 10.23 10.23 0 0 1-.14 8.23z" fill="#009580"/><path class="cls-2" d="M21 37.53V48.9a8.68 8.68 0 0 1-2-.28v-9.09c0-2.41-.12-2.53-.53-2.53H14v-2h4.47A2.54 2.54 0 0 1 21 37.53zM31 32.16V35h-2v-2.84c0-.41-.59-.16-1-.16h-5a3.53 3.53 0 0 1-3-3.12V16a6.53 6.53 0 0 1 1.09.17 9.81 9.81 0 0 1 .91-.77v13.48c0 .41.33 1.12.74 1.12h5.66c1.4 0 2.6.76 2.6 2.16zM52 35v1.78c0 1.4 0 3.22-2 3.22h-7v9.45h-.14a8.76 8.76 0 0 1-1.86-.19V24.69c0-.41-.59-.69-1-.69h-5v-2h5a3.11 3.11 0 0 1 3 2.69V38h6.71c.41 0 .29-.81.29-1.22V35z"/><path class="cls-2" d="M11 32a4 4 0 1 0 4 4 4 4 0 0 0-4-4zm0 6.5a2.5 2.5 0 1 1 2.5-2.5 2.5 2.5 0 0 1-2.5 2.47zM30 34a4 4 0 1 0 4 4 4 4 0 0 0-4-4zm0 6.5a2.5 2.5 0 1 1 2.5-2.5 2.5 2.5 0 0 1-2.5 2.5zM32 19a4 4 0 1 0 4 4 4 4 0 0 0-4-4zm0 6.5a2.5 2.5 0 1 1 2.5-2.5 2.5 2.5 0 0 1-2.5 2.5zM51 28a4 4 0 1 0 4 4 4 4 0 0 0-4-4zm0 6.5a2.5 2.5 0 1 1 2.5-2.5 2.5 2.5 0 0 1-2.5 2.5z"/></g></svg>

<svg xmlns="http://www.w3.org/2000/svg" viewBox="0 0 64 64">
  <defs>
    <style>
      .cls-1 {
        fill: #009580;
      }

      .cls-2 {
        fill: #fff;
      }
    </style>
  </defs>
  <title>i_azure-cognitive-services-color</title>
  <g id="Layer_5" data-name="Layer 5">
    <path class="cls-1" d="M63.07,40a10.29,10.29,0,0,1-3.49,4.33,8.64,8.64,0,0,1-5,1.62,8.47,8.47,0,0,1-3.21-.64,10.63,10.63,0,0,1-3.72,3A10.92,10.92,0,0,1,43,49.45h-.14A8.76,8.76,0,0,1,41,49.26a8.46,8.46,0,0,1-1.84-.61,12,12,0,0,1-7.47,2.22c-2.59,0-5.78-.64-7.86-2.36a8.13,8.13,0,0,1-2.57.4H21a8.68,8.68,0,0,1-2-.28,11.81,11.81,0,0,1-5.13-2.78,9.17,9.17,0,0,1-3.79.8,9.68,9.68,0,0,1-8.41-4.93,11.39,11.39,0,0,1-.79-10A13.29,13.29,0,0,1,9,24.28C10.25,19.71,14.78,16,19.34,16q.33,0,.66,0a6.53,6.53,0,0,1,1.09.17A9.81,9.81,0,0,1,22,15.4a11.88,11.88,0,0,1,6.84-2.32,8.17,8.17,0,0,1,3.81.9,11.48,11.48,0,0,1,4.52-1,12.5,12.5,0,0,1,7.38,2.66l.58,0c6,0,10,4.82,11.41,9.63a12.91,12.91,0,0,1,6.67,6.5A10.23,10.23,0,0,1,63.07,40Z"/>
    <path class="cls-2" d="M21,37.53V48.9a8.68,8.68,0,0,1-2-.28V39.53c0-2.41-.12-2.53-.53-2.53H14V35h4.47A2.54,2.54,0,0,1,21,37.53Z"/>
    <path class="cls-2" d="M31,32.16V35H29V32.16c0-.41-.59-.16-1-.16H23a3.53,3.53,0,0,1-3-3.12V16a6.53,6.53,0,0,1,1.09.17A9.81,9.81,0,0,1,22,15.4V28.88c0,.41.33,1.12.74,1.12H28.4C29.8,30,31,30.76,31,32.16Z"/>
    <path class="cls-2" d="M52,35v1.78c0,1.4,0,3.22-2,3.22H43v9.45h-.14A8.76,8.76,0,0,1,41,49.26V24.69c0-.41-.59-.69-1-.69H35V22h5a3.11,3.11,0,0,1,3,2.69V38h6.71c.41,0,.29-.81.29-1.22V35Z"/>
    <path class="cls-2" d="M11,32a4,4,0,1,0,4,4A4,4,0,0,0,11,32Zm0,6.5a2.5,2.5,0,1,1,2.5-2.5A2.5,2.5,0,0,1,11,38.47Z"/>
    <path class="cls-2" d="M30,34a4,4,0,1,0,4,4A4,4,0,0,0,30,34Zm0,6.5A2.5,2.5,0,1,1,32.5,38,2.5,2.5,0,0,1,30,40.5Z"/>
    <path class="cls-2" d="M32,19a4,4,0,1,0,4,4A4,4,0,0,0,32,19Zm0,6.5A2.5,2.5,0,1,1,34.5,23,2.5,2.5,0,0,1,32,25.5Z"/>
    <path class="cls-2" d="M51,28a4,4,0,1,0,4,4A4,4,0,0,0,51,28Zm0,6.5A2.5,2.5,0,1,1,53.5,32,2.5,2.5,0,0,1,51,34.5Z"/>
  </g>
</svg>
